!!!SOCIAL_FUNCTION:	songs connected with the cure of the sick
!!!PDT:	1909
!!!OTL: No_79_Healing_Song.krn
!!!REG: Great_Lakes
!!!LANG: Non-Tone
!!!LING_GROUP: Algonquin
**kern	**kern
*staff2	*staff1
=1-	=1-
*clefF4	*clefF4
*k[f#]	*k[f#]
*M3/4	*M3/4
8GG/L	4B\
8GG/J	.
8GG/L	8B\L
8GG/J	8B\J
8GG/L	8B\L
8GG/J	8G\J
=2||	=2||
*M4/4	*M4/4
1r	4B\
.	8B\L
.	8B\J
.	8B\L
.	8G\
.	8A\
.	8G\J
=3	=3
1r	8.E\L
.	16E\Jk
.	[4E\
.	2E\]
=4||	=4||
*M3/4	*M3/4
2.r	8A\L
.	8G\J
.	8E\L
.	8F#\J
.	8G\L
.	8E\J
=5	=5
2.r	8G\L
.	8F#\J
.	8E\L
.	8F#\J
.	8G\L
.	8E\J
=6||	=6||
*M2/4	*M2/4
2r	8.BB/L
.	16BB/Jk
.	4BB/
=7||	=7||
*M3/4	*M3/4
2.r	4E\
.	8D\L
.	8E\J
.	8E/L
.	8BB/J
=8||	=8||
*M2/4	*M2/4
2r	4BB/
.	4AA/
=9||	=9||
*M3/4	*M3/4
2.r	4BB/
.	8GG/L
.	8BB/J
.	8BB/L
.	8GG/J
=10	=10
2.r	4BB/
.	8AA/L
.	8BB/J
.	8BB/L
.	8GG/J
=11||	=11||
*M2/4	*M2/4
2r	8.EE/L
.	16EE/Jk
.	[4EE/
=12	=12
2r	2EE/]
=13||	=13||
*M3/4	*M3/4
2.r	4B\
.	8B\L
.	8B\J
.	8B\L
.	8G\J
=14||	=14||
*M4/4	*M4/4
1r	4B\
.	8B\L
.	8B\J
.	8B\L
.	8G\
.	(8A\
.	8G\J)
=15	=15
1r	8.E\L
.	16E\Jk
.	[4E\
.	2E\]
=16	=16
1r	(8A\L
.	8G\)
.	8E\
.	8F#\J
.	8G\L
.	8E\
.	8.E\
.	16D#\Jk
=17	=17
1r	4E\
.	4E\
.	8BB/L
.	8BB/J
.	4BB/
=18||	=18||
*M3/4	*M3/4
2.r	4BB/
.	8BB/L
.	8BB/J
.	8BB/L
.	8GG/J
=19	=19
2.r	4BB/
.	8AA/L
.	8BB/J
.	8BB/L
.	8GG/J
=20||	=20||
*M4/4	*M4/4
1r	8.EE/L
.	16EE/Jk
.	[4EE/
.	2EE/]
=21||	=21||
*M3/4	*M3/4
2.r	4B\
.	8B\L
.	8B\J
.	8B\L
.	8G\J
=22||	=22||
*M4/4	*M4/4
1r	4B\
.	8B\L
.	8B\J
.	8B\L
.	8G\
.	8A\
.	8G\J
=23	=23
1r	8.E\L
.	16E\Jk
.	[4E\
.	2E\]
=24||	=24||
*M3/4	*M3/4
2.r	4B\
.	8B\L
.	8B\J
.	8B\L
.	8G\J
=25||	=25||
*M4/4	*M4/4
1r	4B\
.	8B\L
.	8B\J
.	8B\L
.	8G\
.	8A\
.	8G\J
=26	=26
1r	8.E\L
.	16E\Jk
.	[4E\
.	2E\]
=27||	=27||
*M3/4	*M3/4
2.r	8A\L
.	8G\J
.	8E\L
.	8F#\J
.	8G\L
.	8E\J
=28||	=28||
*M4/4	*M4/4
1r	8A\L
.	8G\
.	8E\
.	8F#\J
.	8G\L
.	8E\
.	8E\
.	8D#\J
=29	=29
1r	4E\
.	4E\
.	8BB/L
.	8BB/J
.	4BB/
=30||	=30||
*M3/4	*M3/4
2.r	4BB/
.	8BB/L
.	8BB/J
.	8BB/L
.	8GG/J
=31	=31
2.r	4BB/
.	8AA/L
.	8BB/J
.	8BB/L
.	8GG/J
=32||	=32||
*M4/4	*M4/4
1r	8.EE/L
.	16EE/Jk
.	4EE/
.	2EE/
==	==
*-	*-
